svg/Outline/time.svg

<svg viewBox="0 0 24 24" xmlns="http://www.w3.org/2000/svg" width="24" height="24"><path d="M12 4.84c.5 0 .9.4.9.9v5.36h3.57a.9.9 0 0 1 0 1.8H12l-.24-.03h-.02l-.02-.01-.17-.07a.9.9 0 0 1-.46-.7V5.75c0-.5.4-.9.9-.9"/><path fill-rule="evenodd" d="M12 1a11 11 0 1 1 0 22 11 11 0 0 1 0-22m0 1.8a9.2 9.2 0 1 0 0 18.4 9.2 9.2 0 0 0 0-18.4" clip-rule="evenodd"/></svg>

<svg viewBox="0 0 24 24" xmlns="http://www.w3.org/2000/svg" width="24" height="24"><path d="M12 4.84C12.5 4.84 12.9 5.24 12.9 5.74L12.9 11.1L16.47 11.1A.9 .9 0 0 1 16.47 12.9L12 12.9L11.72 12.86L11.55 12.79A.9 .9 0 0 1 11.09 12.09L11.09 5.75C11.09 5.25 11.49 4.85 11.99 4.85"/><path fill-rule="evenodd" d="M12 1a11 11 0 1 1 0 22 11 11 0 0 1 0-22m0 1.8a9.2 9.2 0 1 0 0 18.4 9.2 9.2 0 0 0 0-18.4" clip-rule="evenodd"/></svg>
